svgs/duotone/square-j.svg

<svg xmlns="http://www.w3.org/2000/svg" viewBox="0 0 448 512"><!-- Font Awesome Pro 6.0.0-alpha2 by @fontawesome - https://fontawesome.com License - https://fontawesome.com/license (Commercial License) --><defs><style>.fa-secondary{opacity:.4}</style></defs><path d="M384 32H64C28.654 32 0 60.654 0 96V416C0 451.346 28.654 480 64 480H384C419.346 480 448 451.346 448 416V96C448 60.654 419.346 32 384 32ZM304 290.672C304 342.141 260.938 384 208 384S112 342.141 112 290.672V280C112 266.75 122.75 256 136 256S160 266.75 160 280V290.672C160 315.672 181.531 336 208 336S256 315.672 256 290.672V152C256 138.75 266.75 128 280 128S304 138.75 304 152V290.672Z" class="fa-secondary"/><path d="M280 128C266.75 128 256 138.75 256 152V290.672C256 315.672 234.469 336 208 336S160 315.672 160 290.672V280C160 266.75 149.25 256 136 256S112 266.75 112 280V290.672C112 342.141 155.062 384 208 384S304 342.141 304 290.672V152C304 138.75 293.25 128 280 128Z" class="fa-primary"/></svg>

<svg xmlns="http://www.w3.org/2000/svg" viewBox="0 0 448 512"><!--! Font Awesome Pro 6.3.0 by @fontawesome - https://fontawesome.com License - https://fontawesome.com/license (Commercial License) Copyright 2023 Fonticons, Inc. --><defs><style>.fa-secondary{opacity:.4}</style></defs><path class="fa-primary" d="M280 128C266.8 128 256 138.8 256 152v138.7C256 315.7 234.5 336 208 336S160 315.7 160 290.7V280C160 266.8 149.3 256 136 256S112 266.8 112 280v10.67C112 342.1 155.1 384 208 384s96-41.86 96-93.33V152C304 138.8 293.3 128 280 128z"/><path class="fa-secondary" d="M384 32H64C28.65 32 0 60.65 0 96v320c0 35.35 28.65 64 64 64h320c35.35 0 64-28.65 64-64V96C448 60.65 419.3 32 384 32zM304 290.7C304 342.1 260.9 384 208 384s-96-41.86-96-93.33V280C112 266.8 122.8 256 136 256S160 266.8 160 280v10.67C160 315.7 181.5 336 208 336S256 315.7 256 290.7V152C256 138.8 266.8 128 280 128s24 10.75 24 24V290.7z"/></svg>
